dist/images/advant-1.svg

<svg width="64" height="64" viewBox="0 0 64 64" fill="none" xmlns="http://www.w3.org/2000/svg">
<path d="M36.677 13.0001H27.323L24.345 5.55611L29.395 6.81911L32 0.308113L34.604 6.81911L39.654 5.55611L36.677 13.0001Z" fill="#0094FF"/>
<path d="M35 27L32 30L29 27H23V35.936C23 38.825 24.125 41.54 26.167 43.582C26.989 44.404 27.935 45.086 28.978 45.607L32 47.118L35.023 45.606C36.066 45.085 37.011 44.403 37.833 43.581C39.875 41.539 41 38.824 41 35.936V27H35Z" fill="#0094FF"/>
<path d="M63.1041 63.104L61.9601 50.519L51.6901 41.302C51.8831 40.906 52.0001 40.469 52.0001 40C52.0001 39.605 51.9191 39.23 51.7801 38.884C53.0551 38.538 54.0001 37.383 54.0001 36C54.0001 35.605 53.9191 35.23 53.7801 34.884C55.0551 34.538 56.0001 33.383 56.0001 32C56.0001 30.346 54.6541 29 53.0001 29H45.0001V26.84L48.0391 23.453L51.0001 26.414L55.4141 22L51.4141 18L57.9031 11.512L58.5431 8.954C58.6951 8.971 58.8431 9 59.0001 9C61.2061 9 63.0001 7.206 63.0001 5C63.0001 2.794 61.2061 1 59.0001 1C56.7941 1 55.0001 2.794 55.0001 5C55.0001 5.157 55.0291 5.306 55.0461 5.458L52.4891 6.097L46.0001 12.586L42.0001 8.586L37.5861 13L40.5471 15.961L33.6051 22.191L32.0001 20.586L30.3951 22.191L23.4531 15.961L26.4141 13L22.0001 8.586L18.0001 12.586L11.5111 6.097L8.95406 5.458C8.97106 5.306 9.00006 5.157 9.00006 5C9.00006 2.794 7.20606 1 5.00006 1C2.79406 1 1.00006 2.794 1.00006 5C1.00006 7.206 2.79406 9 5.00006 9C5.15706 9 5.30506 8.971 5.45806 8.954L6.09806 11.512L12.5861 18L8.58606 22L13.0001 26.414L15.9611 23.453L19.0001 26.84V29H11.0001C9.34606 29 8.00006 30.346 8.00006 32C8.00006 33.383 8.94506 34.539 10.2201 34.884C10.0811 35.23 10.0001 35.605 10.0001 36C10.0001 37.383 10.9451 38.539 12.2201 38.884C12.0811 39.23 12.0001 39.605 12.0001 40C12.0001 40.469 12.1171 40.906 12.3101 41.302L2.04006 50.519L0.896057 63.104L13.4821 61.959L25.9671 48.047C26.3501 48.284 26.7421 48.509 27.1471 48.712L32.0001 51.116L36.8561 48.711C37.2601 48.509 37.6511 48.285 38.0331 48.048L50.5181 61.96L63.1041 63.104ZM60.7541 59.34L44.4141 43H49.0001C49.4541 43 49.8801 42.891 50.2651 42.71L60.0391 51.481L60.7541 59.34ZM53.0001 31C53.5511 31 54.0001 31.448 54.0001 32C54.0001 32.552 53.5511 33 53.0001 33H49.0001V35H51.0001C51.5511 35 52.0001 35.448 52.0001 36C52.0001 36.552 51.5511 37 51.0001 37H47.0001V39H49.0001C49.5511 39 50.0001 39.448 50.0001 40C50.0001 40.552 49.5511 41 49.0001 41H44.0511C44.6781 39.44 45.0001 37.782 45.0001 36V31H53.0001ZM45.0001 23.846V23H42.4141L45.0001 20.414L46.6231 22.037L45.0001 23.846ZM59.0001 3C60.1031 3 61.0001 3.897 61.0001 5C61.0001 6.103 60.1031 7 59.0001 7C57.8971 7 57.0001 6.103 57.0001 5C57.0001 3.897 57.8971 3 59.0001 3ZM56.6621 8.231L56.2581 9.844L54.1561 7.742L55.7691 7.338C56.0181 7.681 56.3191 7.982 56.6621 8.231ZM52.5001 8.914L55.0861 11.5L50.0001 16.586L47.4141 14L52.5001 8.914ZM42.0001 11.414L52.5861 22L51.0001 23.586L40.4141 13L42.0001 11.414ZM43.5861 19L39.5861 23H35.6971L41.9631 17.377L43.5861 19ZM34.5861 26L32.0001 28.586L29.4141 26L32.0001 23.414L34.5861 26ZM28.3031 23H24.4141L20.4141 19L22.0371 17.377L28.3031 23ZM3.00006 5C3.00006 3.897 3.89706 3 5.00006 3C6.10306 3 7.00006 3.897 7.00006 5C7.00006 6.103 6.10306 7 5.00006 7C3.89706 7 3.00006 6.103 3.00006 5ZM8.23106 7.338L9.84406 7.742L7.74206 9.844L7.33806 8.231C7.68106 7.982 7.98206 7.681 8.23106 7.338ZM8.91406 11.5L11.5001 8.914L16.5861 14L14.0001 16.586L8.91406 11.5ZM11.4141 22L22.0001 11.414L23.5861 13L13.0001 23.586L11.4141 22ZM17.3771 22.037L19.0001 20.414L21.5861 23H19.0001V23.846L17.3771 22.037ZM13.0001 35H15.0001V33H11.0001C10.4491 33 10.0001 32.552 10.0001 32C10.0001 31.448 10.4491 31 11.0001 31H19.0001V36C19.0001 37.782 19.3221 39.44 19.9491 41H15.0001C14.4491 41 14.0001 40.552 14.0001 40C14.0001 39.448 14.4491 39 15.0001 39H17.0001V37H13.0001C12.4491 37 12.0001 36.552 12.0001 36C12.0001 35.448 12.4491 35 13.0001 35ZM13.7351 42.71C14.1211 42.891 14.5461 43 15.0001 43H19.5861L3.24606 59.34L3.96106 51.481L13.7351 42.71ZM12.5181 60.04L4.66006 60.754L21.5391 43.875C22.0481 44.582 22.6261 45.27 23.2931 45.936C23.6241 46.268 23.9751 46.577 24.3341 46.874L12.5181 60.04ZM35.9651 46.92L32.0001 48.884L28.0381 46.922C26.8041 46.306 25.6831 45.498 24.7071 44.522C22.1781 41.993 21.0001 39.285 21.0001 36V25H27.5861L26.5861 26L31.0001 30.414V35H25.0001V37H31.0001V45H33.0001V37H39.0001V35H33.0001V30.414L37.4141 26L36.4141 25H43.0001V36C43.0001 39.285 41.8221 41.993 39.2921 44.521C38.3171 45.498 37.1971 46.306 35.9651 46.92ZM40.7071 45.936C41.3731 45.27 41.9521 44.582 42.4611 43.875L59.3401 60.754L51.4821 60.04L39.6661 46.874C40.0261 46.576 40.3761 46.267 40.7071 45.936Z" fill="#345A9C"/>
</svg>

<svg width="64" height="64" fill="none" xmlns="http://www.w3.org/2000/svg"><path d="M36.677 13h-9.354l-2.978-7.444 5.05 1.263L32 .31l2.604 6.51 5.05-1.263L36.677 13zM35 27l-3 3-3-3h-6v8.936c0 2.889 1.125 5.604 3.167 7.646a10.784 10.784 0 002.811 2.025L32 47.118l3.023-1.512a10.78 10.78 0 002.81-2.025A10.741 10.741 0 0041 35.936V27h-6z" fill="#0094FF"/><path d="M63.104 63.104L61.96 50.519l-10.27-9.217c.193-.396.31-.833.31-1.302 0-.395-.08-.77-.22-1.116A2.995 2.995 0 0054 36c0-.395-.08-.77-.22-1.116A2.995 2.995 0 0056 32c0-1.654-1.346-3-3-3h-8v-2.16l3.04-3.387L51 26.414 55.414 22l-4-4 6.49-6.488.64-2.558c.151.017.3.046.456.046 2.206 0 4-1.794 4-4s-1.794-4-4-4-4 1.794-4 4c0 .157.03.306.046.458l-2.557.639L46 12.586l-4-4L37.586 13l2.961 2.961-6.942 6.23L32 20.586l-1.605 1.605-6.942-6.23L26.414 13 22 8.586l-4 4-6.489-6.489-2.557-.639C8.971 5.306 9 5.157 9 5c0-2.206-1.794-4-4-4S1 2.794 1 5s1.794 4 4 4c.157 0 .305-.029.458-.046l.64 2.558L12.586 18l-4 4L13 26.414l2.961-2.961 3.04 3.387V29h-8c-1.655 0-3 1.346-3 3 0 1.383.944 2.539 2.22 2.884-.14.346-.22.721-.22 1.116 0 1.383.944 2.539 2.22 2.884-.14.346-.22.721-.22 1.116 0 .469.116.906.31 1.302L2.04 50.519.895 63.104l12.586-1.145 12.485-13.912c.383.237.775.462 1.18.665L32 51.116l4.856-2.405a14.74 14.74 0 001.177-.663L50.518 61.96l12.586 1.144zm-2.35-3.764L44.414 43H49c.454 0 .88-.109 1.265-.29l9.774 8.771.715 7.859zM53 31a1.001 1.001 0 010 2h-4v2h2a1.001 1.001 0 010 2h-4v2h2a1.001 1.001 0 010 2h-4.949c.627-1.56.95-3.218.95-5v-5h8zm-8-7.154V23h-2.586L45 20.414l1.623 1.623L45 23.846zM59 3c1.103 0 2 .897 2 2s-.897 2-2 2-2-.897-2-2 .897-2 2-2zm-2.338 5.231l-.404 1.613-2.102-2.102 1.613-.404c.25.343.55.644.893.893zm-4.162.683l2.586 2.586L50 16.586 47.414 14 52.5 8.914zm-10.5 2.5L52.586 22 51 23.586 40.414 13 42 11.414zM43.586 19l-4 4h-3.889l6.266-5.623L43.586 19zm-9 7L32 28.586 29.414 26 32 23.414 34.586 26zm-6.283-3h-3.889l-4-4 1.623-1.623L28.303 23zM3 5c0-1.103.897-2 2-2s2 .897 2 2-.897 2-2 2-2-.897-2-2zm5.231 2.338l1.613.404-2.102 2.102-.404-1.613c.343-.249.644-.55.893-.893zm.683 4.162L11.5 8.914 16.586 14 14 16.586 8.914 11.5zm2.5 10.5L22 11.414 23.586 13 13 23.586 11.414 22zm5.963.037L19 20.414 21.586 23H19v.846l-1.623-1.809zM13 35h2v-2h-4a1.001 1.001 0 010-2h8v5c0 1.782.322 3.44.95 5H15a1.001 1.001 0 010-2h2v-2h-4a1.001 1.001 0 010-2zm.735 7.71c.386.181.811.29 1.265.29h4.586L3.246 59.34l.715-7.859 9.774-8.771zm-1.217 17.33l-7.858.714 16.88-16.879a16.641 16.641 0 001.753 2.061c.331.332.682.641 1.041.938L12.518 60.04zm23.447-13.12L32 48.884l-3.962-1.962a12.769 12.769 0 01-3.33-2.4C22.177 41.993 21 39.285 21 36V25h6.586l-1 1L31 30.414V35h-6v2h6v8h2v-8h6v-2h-6v-4.586L37.414 26l-1-1H43v11c0 3.285-1.178 5.993-3.708 8.521a12.693 12.693 0 01-3.327 2.399zm4.742-.984a16.728 16.728 0 001.754-2.061l16.88 16.879-7.859-.714-11.816-13.166c.36-.298.71-.607 1.041-.938z" fill="#345A9C"/></svg>
